X:1
T:Some Mother’s Child
T:Leander Lycurgus Pickett, 1899
T:Some Mother’s Child
T:Public Domain
T:Public Domain
T:Public Domain
C:Leander Lycurgus Pickett, 1899
Z:Public Domain
%%score ( 1 2 ) 3
L:1/8
M:3/4
K:Bb
V:1 treble 
V:2 treble 
V:3 bass 
V:1
 [DF]2"^Introduction. Solo or Duet." | [DF]4 [B,D][DF] | [DB]4 [DB][Fd] | c3 d [DB][CA] | [DB]4 || %5
w: ~|~ ~ ~|~ ~ ~|~ ~ ~ ~|1.~At|
w: ~|~ ~ ~|~ ~ ~|~ ~ ~ ~|2.~And|
w: ~|~ ~ ~|~ ~ ~|~ ~ ~ ~|3.~No|
w: ~|~ ~ ~|~ ~ ~|~ ~ ~ ~|4.~That|
 [B,D]2 | [DF]4 [B,D][DF] | ([DB] [DB]3) [DB][FA] | [EG] [DB]3 [B,D]2 | [DF]4 [DF]2 | %10
w: home|or a- way,|in * the al-|ley or street,|Wher- ev-|
w: when|I see those|o’er * whom long|years have rolled,|Whose hearts|
w: mat-|ter how deep|he * is sunk-|en in sin,|No mat-|
w: head|hath been pillowed|o- * n ten-|der- est breast,|That form|
 [DF]4 [B,D][DF] | ([DB] [DB]3) [DB][Ec] | [Fd]4 [=Ec]>[EG] | [Ec]4 ([DB][DB]) | [Fd]4 [Ec][Fd] | %15
w: er I chance|in * this wide|world to meet|A girl *|that is thought-|
w: have grown hardened,|who- * se spir-|its are cold,|Be~it wo- *|man all fall-|
w: ter how much|he * is shunned|by his kin,|No mat- *|ter how fo-|
w: hath been wept~o’er,|tho- * se lips|have been pressed,|That soul *|hath been prayed|
 [DF] [DF]3 [DF]>[DF] | ([EG] [GB]3) [EG][GB] | [DF]4 [DF]2 | [DF]4 [EG][DF] | %19
w: less, or a boy|that * is wild,|My heart|e- choes soft-|
w: en, o- r man|all * de- filed,|A voice|whis- pers sad-|
w: ul is the fountain|of * his joy,|Tho’ guilt-|y and loath-|
w: for i- n tones~sweet|a- * nd mild,|For her|sake deal gent-|
 [DF] [DB]3 [DB]>[Fd] | (c3 d) [DB][CA] | [DB]6 ||"^Refrain" [Ec]4 [EF][FA] | [Fd]6 | %24
w: ly, “It is some|mo- * ther’s child.”|mo-|ther’s child, some|mo-|
w: ly, “It is some|mo- * ther’s child.”|mo-|ther’s child, some|mo-|
w: some, he is some|mo- * ther’s boy.|mo-|ther’s boy, some|mo-|
w: ly wi- th some|mo- * ther’s child.|mo-|ther’s child, some|mo-|
 (c3 G) [_EB][EG] | F4 [DF]2 | [DF]4 [EG][DF] | [DF] [FB]3 [FB]>[Fd] | (c3 d) [DB][CA] | [DB]4 || %30
w: ther’s * child My|e- choes|ly, “It is|some mo- ther’s child.”|||
w: ther’s * child A|whis- pers|ly, “It is|some mo- ther’s child.”|||
w: ther’s * boy, Tho’|y and|some, he is|some mo- ther’s boy.|||
w: ther’s * child. For|sake deal|ly wi- th|some mo- ther’s child.|||
V:2
 x2 | x6 | x6 | E4 x2 | x4 || x2 | x6 | x6 | x6 | x6 | x6 | x6 | x6 | x6 | x6 | x6 | x6 | x6 | x6 | %19
w: |||~||||||||||||||||
w: |||~||||||||||||||||
w: |||~||||||||||||||||
w: |||~||||||||||||||||
 x6 | E4 x2 | x6 || x6 | x6 | =E4 x2 | F4 x2 | x6 | x6 | E4 x2 | x4 || %30
w: |Some||||heart|soft-|||||
w: |Some||||voice|sad-|||||
w: |Some||||guilt-|loath-|||||
w: |Some||||her|gent-|||||
V:3
 [B,,B,]2 | [B,,B,]4 [B,,F,][B,,B,] | [B,,F,]4 [B,,F,][B,,B,] | [F,A,]4 [F,,B,][F,,F,] | %4
 [B,,F,]4 || z2 | (B,,2 [D,F,B,]2) [D,F,B,]2 | (B,,2 [D,F,B,]2) [D,F,B,]2 | %8
 B,,2 [D,F,B,]2 [D,F,B,]2 | (B,,2 [D,F,B,]2) [D,F,B,]2 | (B,,2 [D,F,B,]2) [D,F,B,]2 | %11
 (B,,2 [D,F,B,]2) [D,F,B,]2 | (C,2 [=E,G,B,]2) [E,G,B,]2 | [F,,F,A,C]4 z2 | %14
 (B,,2 [F,B,D]2) [F,B,D]2 | B,,2 [D,F,B,]2 [D,F,B,]2 | (E,2 [E,G,B,]2) [E,G,B,]2 | %17
 (B,,2 [D,F,B,]2) [D,F,B,]2 | (B,,2 [D,F,B,]2) [E,G,B,]2 | B,,2 [D,F,B,]2 [D,F,B,]2 | %20
 ([C,F,A,CF]2 [C,F,A,C]2) [F,A,C]2 | [B,,D,F,B,]6 || [F,A,]4 [F,A,][D,B,] | [B,,B,]6 | %24
 [C,G,]4 [C,G,][C,B,] | [F,A,]4 [B,,B,]2 | [B,,B,]4 [B,,B,][B,,B,] | %27
 [B,,B,] [B,,F,]3 [D,B,]>[B,,B,] | [F,A,]4 [F,,B,][F,,F,] | [B,,F,]4 || %30

